src/icons/device-mobile.svg

<svg width="16" height="16" xmlns="http://www.w3.org/2000/svg"><path fill-rule="evenodd" clip-rule="evenodd" d="M4.5 1h8l.5.5v13l-.5.5h-8l-.5-.5v-13l.5-.5zM5 14h7V2H5v12zm2.5-2h2v1h-2v-1z"/></svg>

<svg width="16" height="16" viewBox="0 0 16 16" fill="none" xmlns="http://www.w3.org/2000/svg">
<path fill-rule="evenodd" clip-rule="evenodd" d="M4.5 1H12.5L13 1.5V14.5L12.5 15H4.5L4 14.5V1.5L4.5 1ZM5 14H12V2H5V14ZM7.5 12H9.5V13H7.5V12Z" fill="white"/>
</svg>
